tools/download-figma-icons/icons/solid/stopwatch.svg

<svg width="24" height="24" viewBox="0 0 24 24" fill="none" xmlns="http://www.w3.org/2000/svg">
<path fill-rule="evenodd" clip-rule="evenodd" d="M17.25 14.25H13.2975C13.035 14.7 12.555 15 12 15C11.175 15 10.5 14.325 10.5 13.5C10.5 12.945 10.8 12.465 11.25 12.2025V6.75C11.25 6.3375 11.5875 6 12 6C12.4125 6 12.75 6.3375 12.75 6.75V12.2025C12.975 12.3375 13.1625 12.525 13.2975 12.75H17.25C17.6625 12.75 18 13.0875 18 13.5C18 13.9125 17.6625 14.25 17.25 14.25ZM19.9328 6.62775L21 5.5605L21.2197 5.78025C21.366 5.9265 21.558 6 21.75 6C21.942 6 22.134 5.9265 22.2803 5.78025C22.5735 5.487 22.5735 5.013 22.2803 4.71975L20.7803 3.21975C20.487 2.9265 20.013 2.9265 19.7197 3.21975C19.4265 3.513 19.4265 3.987 19.7197 4.28025L19.9395 4.5L18.8722 5.56725L18.87 5.565C17.205 4.1175 15.0825 3.195 12.75 3.03H12.744C12.744 3.01875 12.75 3.0105 12.75 3V1.5H14.25C14.6648 1.5 15 1.16475 15 0.75C15 0.33525 14.6648 0 14.25 0H9.75C9.33525 0 9 0.33525 9 0.75C9 1.16475 9.33525 1.5 9.75 1.5H11.25V3C11.25 3.0105 11.256 3.01875 11.256 3.03H11.25C5.805 3.4125 1.5 7.965 1.5 13.5C1.5 19.29 6.21 24 12 24C17.79 24 22.5 19.29 22.5 13.5C22.5 10.875 21.5325 8.475 19.935 6.63L19.9328 6.62775Z" fill="black"/>
</svg>

<svg xmlns="http://www.w3.org/2000/svg" width="24" height="24" fill="none" viewBox="0 0 24 24"><path fill="currentColor" fill-rule="evenodd" d="M17.25 14.25h-3.953c-.262.45-.742.75-1.297.75-.825 0-1.5-.675-1.5-1.5 0-.555.3-1.035.75-1.297V6.75c0-.412.338-.75.75-.75s.75.338.75.75v5.453c.225.135.412.322.547.547h3.953c.413 0 .75.338.75.75s-.337.75-.75.75m2.683-7.622L21 5.56l.22.22a.75.75 0 0 0 1.06 0 .75.75 0 0 0 0-1.061l-1.5-1.5a.75.75 0 1 0-1.06 1.06l.22.22-1.068 1.067-.002-.002a10.42 10.42 0 0 0-6.12-2.535h-.006c0-.011.006-.02.006-.03V1.5h1.5a.75.75 0 1 0 0-1.5h-4.5a.75.75 0 1 0 0 1.5h1.5V3c0 .01.006.019.006.03h-.006C5.805 3.413 1.5 7.965 1.5 13.5 1.5 19.29 6.21 24 12 24s10.5-4.71 10.5-10.5a10.46 10.46 0 0 0-2.565-6.87z" clip-rule="evenodd"/></svg>
